!!!ONB: MCCC : ILB0327_01 : Extracted Monophonic Melody
!!!COM: Beethoven, Ludwig van
!!!OPR: Violin Sonata No.6 in A major
!!!OMV: 1
!!!SCT: Op.30 No.1
!!!ODT: 1801///
**kern
*staff1
=1
*clefG2
*k[f#c#g#d#]
*E:
*M3/4
2e
4r
=2
2.r
=3
4r
4c#
4d#
=4
2e
4f#
=5
4g#
4a
4b
=6
4e
4a
[4a
=7
4.a]
8a
8g#
8d
=8
2c#
4r
=9
2.r
=10
[2.aa
=11
4aa]
4gg#
4aa
=12
4bb
4ccc#
4ddd[
=13
4ddd]
4.ccc#
8bb
=14
4aa
4gg
8bb
8aa
=15
4gg
4.ff#
8ee
=16
8dd
8cc#
8ee
8dd
8cc#
8b
=17
4b
4a
32b
32a
32b
32a
32b
32a
32g#
32a
=18
4a#
4b
4g#
=19
4a
4r
4r
=20
2.r
=21
4r
4r
4ff#[
=22
4ff#]
8ee
8dd
8cc#
8b
=23
8b
8cc#
8a
16dd#
16ee
16ff#
16ee
16dd#
16ee
=24
4aa
4e
4e#[
=25
4e#]
4f#
4f#[
=26
4f#]
8e
8d
8c#
8B
=27
4A
4r
4r
=28
2.r
=29
2.r
=30
2.r
=31
4r
4cc#
4cc#
=32
4ff#
4r
4r
=33
2.r
=34
2.r
=35
2.r
=36
2.r
=37
2.r
=38
2.e
=39
2.e[
=40
4e]
4dd#
4dd#
=41
4ee
4r
4r
=42
4b
4.ee
8dd#
=43
32dd#
32cc#
32dd#
32cc#
32dd#
32cc#
32b#
32cc#
4.ff#
8ee
=44
32ee
32dd#
32ee
32dd#
32ee
32dd#
32cc#
32dd#
4.ccc#
8bb
=45
8aa
8gg#
8ff#
8ee
8dd#
8ee
=46
8b
8cc#
4dd#
8ee
8dd#
=47
8cc#
8dd#
4ee
8ff#
8ee
=48
4dd#
8ccc#
8ccc#
8bb
8aa
=49
4gg#
4r
4r
=50
2.r
=51
2.r
=52
2.r
=53
2.r
=54
4r
4bb
4bb
=55
2bb
16aa
16gg#
16ff#
16ee
=56
16dd#
16ee
16ff#
16ee
16dd#
16ee
16ff#
16gg#
16aa
16ff#
16ee
16dd#
=57
16ee
16ff#
16gg#
16ff#
16ee
16ff#
16gg#
16aa
16bb
16gg#
16ff#
16ee
=58
16aa
16gg#
16ff#
16gg#
16aa
16gg#
16ff#
16ee
16dd#
16cc#
16b
16a
=59
16g#
16e
16f#
16g#
16a
16b
16cc#
16dd#
16ee
16dd#
16ee
16ff#
=60
8gg#
8aa
8bb
8ccc#
8ddd#
8eee
=61
2.aa
=62
2.ff#
=63
4gg#
4r
8ee
8dd#
=64
8dd
8cc#
8b
8a#
8a
8g#
=65
2.f#
=66
2.d#
=67
4e
4r
4r
=68
2.r
=69
4r
4r
4f#[
=70
4f#]
4f#
4f#
=71
4g#
4r
4f#
=72
4g#
4r
4f#
=73
2.g#
=74
2d#
4dd#
=75
4ee
2gg#[
=76
4.gg#]
8gg
16ff#
16ee
16dd#
16cc#
=77
4b
4r
16ff#
16ee
16dd#
16cc#
=78
4b
4r
16ff#
16ee
16dd#
16cc#
=79
2b
4a#
=80
4a
4f#
8b
8d#
=81
2e
4d#
=82
4d
4B
4d
=83
2c#
4r
=84
2.r
=85
4r
4c#
4d#
=86
2e
4f#
=87
4g#
4a
4b
=88
4e
4a
[4a
=89
4.a]
8a
8g#
8d
=90
2c#
4r
=91
2.r
=92
[2.aa
=93
4aa]
4gg#
4aa
=94
4bb
4ccc#
4ddd[
=95
4ddd]
4.ccc#
8bb
=96
4aa
4gg
8bb
8aa
=97
4gg
4.ff#
8ee
=98
8dd
8cc#
8ee
8dd
8cc#
8b
=99
4b
4a
32b
32a
32b
32a
32b
32a
32g#
32a
=100
4a#
4b
4g#
=101
4a
4r
4r
=102
2.r
=103
4r
4r
4ff#[
=104
4ff#]
8ee
8dd
8cc#
8b
=105
8b
8cc#
8a
16dd#
16ee
16ff#
16ee
16dd#
16ee
=106
4aa
4e
4e#[
=107
4e#]
4f#
4f#[
=108
4f#]
8e
8d
8c#
8B
=109
4A
4r
4r
=110
2.r
=111
2.r
=112
2.r
=113
4r
4cc#
4cc#
=114
4ff#
4r
4r
=115
2.r
=116
2.r
=117
2.r
=118
2.r
=119
2.r
=120
2.e
=121
2.e[
=122
4e]
4dd#
4dd#
=123
4ee
4r
4r
=124
4b
4.ee
8dd#
=125
32dd#
32cc#
32dd#
32cc#
32dd#
32cc#
32b#
32cc#
4.ff#
8ee
=126
32ee
32dd#
32ee
32dd#
32ee
32dd#
32cc#
32dd#
4.ccc#
8bb
=127
8aa
8gg#
8ff#
8ee
8dd#
8ee
=128
8b
8cc#
4dd#
8ee
8dd#
=129
8cc#
8dd#
4ee
8ff#
8ee
=130
4dd#
8ccc#
8ccc#
8bb
8aa
=131
4gg#
4r
4r
=132
2.r
=133
2.r
=134
2.r
=135
2.r
=136
4r
4bb
4bb
=137
2bb
16aa
16gg#
16ff#
16ee
=138
16dd#
16ee
16ff#
16ee
16dd#
16ee
16ff#
16gg#
16aa
16ff#
16ee
16dd#
=139
16ee
16ff#
16gg#
16ff#
16ee
16ff#
16gg#
16aa
16bb
16gg#
16ff#
16ee
=140
16aa
16gg#
16ff#
16gg#
16aa
16gg#
16ff#
16ee
16dd#
16cc#
16b
16a
=141
16g#
16e
16f#
16g#
16a
16b
16cc#
16dd#
16ee
16dd#
16ee
16ff#
=142
8gg#
8aa
8bb
8ccc#
8ddd#
8eee
=143
2.aa
=144
2.ff#
=145
4gg#
4r
8ee
8dd#
=146
8dd
8cc#
8b
8a#
8a
8g#
=147
2.f#
=148
2.d#
=149
4e
4r
4r
=150
2.r
=151
4r
4r
4f#[
=152
4f#]
4f#
4f#
=153
4g#
4r
4f#
=154
4g#
4r
4f#
=155
2.g#
=156
2d#
4dd#
=157
4ee
2gg#[
=158
4.gg#]
8gg
16ff#
16ee
16dd#
16cc#
=159
4b
4r
16ff#
16ee
16dd#
16cc#
=160
4b
4r
16ff#
16ee
16dd#
16cc#
=161
2b
4a#
=162
4a
4f#
8b
8d#
=163
2e
4d#
=164
4d
4B
4d
=165
2c#
4r
=166
2.r
=167
4.d
16c#
16d
16e
16d
16c#
16d
=168
4A
4d
4f#
=169
2.g
=170
4g
4g
4g[
=171
4g]
4f#
4f#[
=172
4f#]
4e
4e[
=173
4e]
4d
4d
=174
4dd
4.dd
8dd
=175
4cc#
4r
4r
=176
2.r
=177
2.r
=178
2.r
=179
2.r
=180
2.r
=181
8a
8b
4cc#
8dd
8cc#
=182
8b
8cc#
4dd
8ee
8dd
=183
8cc#
8bb
8aa
8gg
8ff#
8ee
=184
4dd
4r
4r
=185
2.r
=186
2.r
=187
2.r
=188
4a
4.dd
8b#
=189
8b
8dd#
4.ee
8dd
=190
8cc#
8ee#
8ff#
8ee
8dd
8ff#
=191
8gg
8ff#
8ee
8aa
8ff#
8bb#
=192
4bb
4gg
4bb#[
=193
8bb#]
8aa#
8aa
8ccc#
4ddd[
=194
8ddd]
8bb#
8aa##
8bb#
8ccc#
8bb
=195
8aa
8gg
8ff#
8ee#
8ff#
8b#
=196
4cc#
4.cc#
8b
=197
4a
4.ff#
8b#
=198
8cc#
16g#
16f#
16e#
16f#
16g#
16f#
16e#
16c#
16d#
16e#
=199
16f#
16e#
16f#
16g#
16a
16g#
16a
16g#
16b
16a
16g#
16f#
=200
4e#
4r
4r
=201
4.cc#
16b#
16cc#
16dd
16cc#
16b#
16cc#
=202
2.ccc#
=203
4.cc#
16b#
16cc#
16dd
16cc#
16b#
16cc#
=204
4dd
4r
4r
=205
4.dd
16cc#
16dd
16ee
16dd
16cc#
16dd
=206
2.ddd
=207
4.dd
16cc#
16dd
16ee
16dd
16cc#
16dd
=208
4cc#
4r
4r
=209
4.cc#
16b#
16cc#
16dd
16cc#
16b#
16cc#
=210
2.bb
=211
4.b
16a#
16b
16a#
16b
16cc#
16b
=212
16a
16f#
16g#
16a
16b
16cc#
16dd#
16ee#
16ff#
16ee#
16ff#
16gg#
=213
8aa
8bb
8ccc#
8ddd#
8eee#
8fff#
=214
2.b
=215
2.g#
=216
4a
4r
4r
=217
2.r
=218
2.g#
=219
2.e#
=220
2.e[
=221
4e]
4r
4r
=222
2.r
=223
2.r
=224
4r
4r
4ccc#
=225
4r
4r
4ff#
=226
4r
4r
4bb
=227
4r
4r
4ee
=228
4r
4r
4aa
=229
4r
4r
4aa
=230
4r
4r
4ee[
=231
4.ee]
16dd
16cc#
16ee
16dd
16cc#
16b
=232
2a
4r
=233
2.r
=234
4r
4c#
4d#
=235
2e
4f#
=236
4g#
4a
4b
=237
4e
4a
[4a
=238
4.a]
8a
8e
8d
=239
2c#
4r
=240
2.r
=241
[2.aa
=242
4aa]
4gg#
4aa
=243
4bb
4ccc#
4ddd[
=244
4ddd]
4.ccc#
8bb
=245
4aa
4gg
8bb
8aa
=246
4gg
4.ff#
8ee
=247
8dd
8cc#
8ee
8dd
8cc#
8b
=248
4b
4a
32b
32a
32b
32a
32b
32a
32g#
32a
=249
4a#
4b
4g#
=250
4a
4r
4r
=251
2.r
=252
4r
4r
4ff#[
=253
4ff#]
8ee
8dd
8cc#
8b
=254
8b
8cc#
8a
16dd#
16ee
16ff#
16ee
16dd#
16ee
=255
4aa
4e
4e#[
=256
4e#]
4f#
4f#[
=257
4f#]
8e
8d
8c#
8B
=258
4A
4r
4r
=259
2.r
=260
2.r
=261
2.r
=262
4r
4r
4f#
=263
4b
4r
4r
=264
4r
4bb
4aa#[
=265
4aa#]
8aa
16gg
16ff#
16ee
16dd
16cc#
16b
=266
4a
4r
4ff#
=267
4ee
4r
4r
=268
2.r
=269
2.r
=270
2.r
=271
2.r
=272
2.r
=273
2.A
=274
2.A[
=275
4A]
4a
4a
=276
4a
4r
4r
=277
4ee
4.aa
8gg#
=278
32gg#
32ff#
32gg#
32ff#
32gg#
32ff#
32ee#
32ff#
4.bb
8aa
=279
32aa
32gg#
32aa
32gg#
32aa
32gg#
32ff#
32gg#
4.eee
8ddd
=280
8ddd
8ccc#
8bb
8aa
8gg#
8aa
=281
8ee
8ff#
4gg#
8aa
8gg#
=282
8ff#
8gg#
4aa
8bb
8aa
=283
4gg#
8eee
8eee
8ddd#
8ddd
=284
4ccc#
4r
4r
=285
2.r
=286
2.r
=287
2.r
=288
2.r
=289
4r
4eee
4eee
=290
2eee
16ddd
16ccc#
16bb
16aa
=291
16gg#
16aa
16bb
16aa
16gg#
16aa
16bb
16ccc#
16ddd
16bb
16aa
16gg#
=292
16aa
16bb
16ccc#
16bb
16aa
16bb
16ccc#
16ddd
16eee
16ccc#
16bb
16aa
=293
16ddd
16ccc#
16bb
16ccc#
16ddd
16ccc#
16bb
16aa
16gg#
16ff#
16ee
16dd
=294
16cc#
16a
16b
16cc#
16dd
16ee
16ff#
16gg#
16aa
16gg#
16aa
16bb
=295
8ccc#
8ddd
8eee
8fff#
8ggg#
8aaa
=296
2.dd
=297
2.b
=298
4cc#
4r
8a
8g#
=299
8g
8f#
8e
8d#
8d
8c#
=300
2.B
=301
2.G#
=302
4A
4r
4r
=303
2.r
=304
4r
4r
4b[
=305
4b]
4b
4b
=306
4cc#
4r
4b
=307
4cc#
4r
4b
=308
2.cc#
=309
2g#
4gg#
=310
4aa
2ccc#[
=311
4.ccc#]
8bb#
16bb
16aa
16gg#
16ff#
=312
4ee
4r
16bb
16aa
16gg#
16ff#
=313
4ee
4r
16bb
16aa
16gg#
16ff#
=314
2ee
4dd#
=315
4dd
4b
8ee
8g#
=316
4a
4r
4r
=317
4.cc#
16b
16cc#
16dd
16cc#
16b
16cc#
=318
4dd
4r
4r
=319
4.g#
16f#
16g#
16a
16g#
16f#
16g#
=320
2a
4g#
=321
4g
4e
4a
=322
2f#
4e#[
=323
4e#]
4e
4d
=324
4c#
8r
16d#
16e
16f#
16e
16d#
16e
=325
4c#
8r
16b#
16cc#
16dd
16cc#
16b#
16cc#
=326
4a
8r
16dd#
16ee
16ff#
16ee
16dd#
16ee
=327
4cc#
4ee
4aa
=328
4ccc#
4r
4r
=329
2.r
=330
4.ee
16dd#
16ee
16ff#
16ee
16dd#
16ee
=331
4aa
4r
8r
16r
16aa
==
*-
